SPARK17/help_fr/_apps/images/schematics/em-induction.svg

<?xml version="1.0" encoding="UTF-8" standalone="no"?>
<svg
   xmlns:dc="http://purl.org/dc/elements/1.1/"
   xmlns:cc="http://creativecommons.org/ns#"
   xmlns:rdf="http://www.w3.org/1999/02/22-rdf-syntax-ns#"
   xmlns:svg="http://www.w3.org/2000/svg"
   xmlns="http://www.w3.org/2000/svg"
   xmlns:sodipodi="http://sodipodi.sourceforge.net/DTD/sodipodi-0.dtd"
   xmlns:inkscape="http://www.inkscape.org/namespaces/inkscape"
   version="1.1"
   id="em-induction"
   width="379.94186"
   height="258"
   viewBox="-6 -6 379.94186 258"
   sodipodi:docname="em-induction.svg"
   inkscape:version="0.92.1 r15371">
  <metadata
     id="metadata59">
    <rdf:RDF>
      <cc:Work
         rdf:about="">
        <dc:format>image/svg+xml</dc:format>
        <dc:type
           rdf:resource="http://purl.org/dc/dcmitype/StillImage" />
        <dc:title></dc:title>
      </cc:Work>
    </rdf:RDF>
  </metadata>
  <defs
     id="defs57" />
  <sodipodi:namedview
     pagecolor="#ffffff"
     bordercolor="#666666"
     borderopacity="1"
     objecttolerance="10"
     gridtolerance="10"
     guidetolerance="10"
     inkscape:pageopacity="0"
     inkscape:pageshadow="2"
     inkscape:window-width="1368"
     inkscape:window-height="746"
     id="namedview55"
     showgrid="false"
     fit-margin-top="0"
     fit-margin-left="0"
     fit-margin-right="0"
     fit-margin-bottom="0"
     inkscape:zoom="1.6489766"
     inkscape:cx="354.15907"
     inkscape:cy="129"
     inkscape:window-x="0"
     inkscape:window-y="0"
     inkscape:window-maximized="1"
     inkscape:current-layer="g52" />
  <desc
     id="desc2">
XCircuit Version 3.7
File &quot;induction.ps&quot; Page 1
</desc>
  <g
     id="g52"
     style="stroke:#000000"
     transform="translate(-5,-5)">
    <path
       d="m 176,0 v 64 h 32 V 0 Z"
       id="path4"
       inkscape:connector-curvature="0"
       style="fill:none;stroke:#000000;stroke-width:2;stroke-linecap:round;stroke-linejoin:bevel" />
    <path
       d="m 192,88 v 60"
       id="path6"
       inkscape:connector-curvature="0"
       style="fill:none;stroke:#000000;stroke-width:1.60000002;stroke-linecap:round;stroke-linejoin:bevel" />
    <path
       d="m 184,140 c 5,10 5,13 8,28 3,-15 3,-18 8,-28 -6,2 -10,2 -16,0"
       id="path8"
       inkscape:connector-curvature="0"
       style="fill:#000000;stroke:none" />
    <path
       d="m 224,176 v 80 h 16 v -80 z"
       id="path10"
       inkscape:connector-curvature="0"
       style="fill:none;stroke:#000000;stroke-width:2;stroke-linecap:round;stroke-linejoin:bevel" />
    <path
       d="m 160,176 v 80 h -16 v -80 z"
       id="path12"
       inkscape:connector-curvature="0"
       style="fill:none;stroke:#000000;stroke-width:2;stroke-linecap:round;stroke-linejoin:bevel" />
    <g
       transform="translate(224,48)"
       id="g18"
       style="fill:#000000">
      <text
         font-size="40"
         id="text16"
         style="font-size:40px;font-family:Helvetica;stroke:none">
        <tspan
           x="0"
           y="0"
           id="tspan14" />
      </text>
    </g>
    <g
       transform="translate(224,48)"
       id="g24"
       style="fill:#000000">
      <text
         font-size="40"
         id="text22"
         style="font-style:normal;font-variant:normal;font-weight:normal;font-stretch:normal;font-size:40px;font-family:Helvetica;-inkscape-font-specification:'Helvetica, Normal';font-variant-ligatures:normal;font-variant-caps:normal;font-variant-numeric:normal;font-feature-settings:normal;text-align:start;writing-mode:lr-tb;text-anchor:start;stroke:none">
        <tspan
           sodipodi:role="line"
           id="tspan61"
           x="0"
           y="0">Aimant</tspan>
      </text>
    </g>
    <g
       transform="translate(256,224)"
       id="g30"
       style="fill:#000000">
      <text
         font-size="40"
         id="text28"
         style="font-size:40px;font-family:Helvetica;stroke:none">
        <tspan
           sodipodi:role="line"
           id="tspan63"
           x="0"
           y="0">Bobine</tspan>
      </text>
    </g>
    <path
       d="m 16,128 v 48 h 80 v -48 z"
       id="path32"
       inkscape:connector-curvature="0"
       style="fill:none;stroke:#000000;stroke-width:2;stroke-linecap:round;stroke-linejoin:bevel" />
    <path
       d="m 0,208 v 48 h 96 v -48 z"
       id="path34"
       inkscape:connector-curvature="0"
       style="fill:none;stroke:#000000;stroke-width:2;stroke-linecap:round;stroke-linejoin:bevel" />
    <path
       d="m 96,160 h 16 v 32 h 32"
       id="path36"
       inkscape:connector-curvature="0"
       style="fill:none;stroke:#000000;stroke-width:2;stroke-linecap:round;stroke-linejoin:bevel" />
    <path
       d="m 96,224 h 48"
       id="path38"
       inkscape:connector-curvature="0"
       style="fill:none;stroke:#000000;stroke-width:2;stroke-linecap:round;stroke-linejoin:bevel" />
    <g
       transform="translate(32,160)"
       id="g44"
       style="fill:#000000">
      <text
         font-size="40"
         id="text42"
         style="font-size:40px;font-family:Helvetica;stroke:none">
        <tspan
           x="0"
           y="0"
           id="tspan40">A1</tspan>
      </text>
    </g>
    <g
       transform="translate(0,240)"
       id="g50"
       style="fill:#000000">
      <text
         font-size="40"
         id="text48"
         style="font-size:40px;font-family:Helvetica;stroke:none">
        <tspan
           x="0"
           y="0"
           id="tspan46">GND</tspan>
      </text>
    </g>
  </g>
</svg>

<svg xmlns="http://www.w3.org/2000/svg"
   xmlns:xlink="http://www.w3.org/1999/xlink"
   version="1.1"
   id="em-induction" width="100%" height="100%"  viewBox="-6 -6 360 262">
<desc>
XCircuit Version 3.7
File "induction.ps" Page 1
</desc>
<g stroke="black">
<path d="M176,0 L176,64 208,64 208,0 z" fill="none" stroke-width="2" stroke-linejoin="bevel" stroke-linecap="round" stroke="#000000" />
<path d="M192,88 L192,148 " fill="none" stroke-width="1.6" stroke-linejoin="bevel" stroke-linecap="round" stroke="#000000" />
<path d="M184,140 C189,150 189,153 192,168 C195,153 195,150 200,140 C194,142 190,142 184,140 " fill="#000000" stroke="none" />
<path d="M224,176 L224,256 240,256 240,176 z" fill="none" stroke-width="2" stroke-linejoin="bevel" stroke-linecap="round" stroke="#000000" />
<path d="M160,176 L160,256 144,256 144,176 z" fill="none" stroke-width="2" stroke-linejoin="bevel" stroke-linecap="round" stroke="#000000" />
<g transform="matrix(   1    0   -0    1 224  48)" fill="#000000" >
<text stroke="none" font-family="Helvetica" font-size="40" ><tspan x="0" y="0"></tspan>
</text></g>
<g transform="matrix(   1    0   -0    1 224  48)" fill="#000000" >
<text stroke="none" font-family="Helvetica" font-size="40" ><tspan x="0" y="0">Magnet</tspan>
</text></g>
<g transform="matrix(   1    0   -0    1 256 224)" fill="#000000" >
<text stroke="none" font-family="Helvetica" font-size="40" ><tspan x="0" y="0">Coil</tspan>
</text></g>
<path d="M16,128 L16,176 96,176 96,128 z" fill="none" stroke-width="2" stroke-linejoin="bevel" stroke-linecap="round" stroke="#000000" />
<path d="M0,208 L0,256 96,256 96,208 z" fill="none" stroke-width="2" stroke-linejoin="bevel" stroke-linecap="round" stroke="#000000" />
<path d="M96,160 L112,160 112,192 144,192 " fill="none" stroke-width="2" stroke-linejoin="bevel" stroke-linecap="round" stroke="#000000" />
<path d="M96,224 L144,224 " fill="none" stroke-width="2" stroke-linejoin="bevel" stroke-linecap="round" stroke="#000000" />
<g transform="matrix(   1    0   -0    1  32 160)" fill="#000000" >
<text stroke="none" font-family="Helvetica" font-size="40" ><tspan x="0" y="0">A1</tspan>
</text></g>
<g transform="matrix(   1    0   -0    1   0 240)" fill="#000000" >
<text stroke="none" font-family="Helvetica" font-size="40" ><tspan x="0" y="0">GND</tspan>
</text></g>
</g>
</svg>
